X:31
T:White Cockade, The
T:Highland Laddie
R:march
H:See also "High Caul Cap", setdance#20
Z:id:hn-march-31
M:2/4
L:1/8
Q:1/4=110
K:G
G/A/ | BB c/B/A/G/ | BB Bg/e/ | dB c/B/A/G/ | BA AG/A/ |
BB c/B/A/G/ | Bd g>a | b/a/g/f/ e/f/g/e/ | dB B :|
|: B/c/ | dB gd | dB BB/c/ | dB gf/g/ | aA AG/A/ |
BB c/B/A/G/ | Bd g>a | b/a/g/f/ e/f/g/e/ | dB B :|
P:variations
|: G/A/ | BB/d/ c/B/A/G/ | BB Bg/e/ | dB c/B/A/G/ | BA AG/A/ |
B/A/B/d/ c/B/A/G/ | Bd gg/a/ | b/a/g/f/ a/g/f/e/ | dB B :|
|: B/c/ | dB gB/c/ | d/^c/d/e/ dB/c/ | dB gf/g/ | aA AG/A/ |
B/A/B/d/ c/B/A/G/ | Bd gg/a/ | b/a/g/f/ a/g/f/e/ | dB B :|

